48x48/mimetypes/application-vnd.recordare.musicxml+xml.svg

<svg xmlns="http://www.w3.org/2000/svg" width="48" height="48" version="1">
 <path style="opacity:0.2" d="M 10,5 C 8.892,5 8,5.892 8,7 l 0,36 c 0,1.108 0.892,2 2,2 l 28,0 c 1.108,0 2,-0.892 2,-2 L 40,17 29,16 28,5 Z"/>
 <path style="fill:#f4f4f7" d="M 10,4 C 8.892,4 8,4.892 8,6 l 0,36 c 0,1.108 0.892,2 2,2 l 28,0 c 1.108,0 2,-0.892 2,-2 L 40,16 29,15 28,4 Z"/>
 <path style="opacity:0.2;fill:#f4f4f7" d="M 10,4 C 8.892,4 8,4.892 8,6 L 8,7 C 8,5.892 8.892,5 10,5 L 28,5 39,16 40,16 28,4 Z"/>
 <path style="opacity:0.2" d="m 28,5 0,10 c 0,1.1046 0.89543,2 2,2 l 10,0 z"/>
 <path style="fill:#fafafa" d="m 28,4 0,10 c 0,1.1046 0.89543,2 2,2 l 10,0 z"/>
 <path style="fill:#2470b2" d="m 20.021421,20.992705 h -0.0192 c 0.0381,4.1874 -7.3e-4,7.375 0,11.562 -1.8438,-1.1725 -4.5316,-0.41497 -5.5172,1.5309 -1.1469,1.9742 -0.16651,4.7651 1.9602,5.5923 2.0774,0.95043 4.7614,-0.2976 5.3772,-2.4962 0.30759,-1.2005 0.13601,-2.4536 0.18418,-3.6809 0.005,-2.8362 0.01,-4.6724 0.0149,-7.5086 h 9 c -0.006,2.5208 -0.0128,4.0417 -0.0192,6.5625 -1.8438,-1.1725 -4.5316,-0.41497 -5.5172,1.5309 -1.1469,1.9742 -0.16651,4.7651 1.9602,5.5923 2.2491,1.0177 5.4228,-0.5127 5.5925,-3.0831 -0.0756,-2.33 -0.01,-4.6677 -0.0263,-7.001 0.003,-2.8672 0.0105,-5.7344 0.01,-8.6016 h -13 z"/>
</svg>

<svg xmlns="http://www.w3.org/2000/svg" width="48" height="48" version="1"><path style="opacity:.2" d="M10 5c-1.108 0-2 .892-2 2v36c0 1.108.892 2 2 2h28c1.108 0 2-.892 2-2V17l-11-1-1-11z"/><path style="fill:#f4f4f7" d="M10 4c-1.108 0-2 .892-2 2v36c0 1.108.892 2 2 2h28c1.108 0 2-.892 2-2V16l-11-1-1-11z"/><path style="opacity:.2;fill:#f4f4f7" d="M10 4c-1.108 0-2 .892-2 2v1c0-1.108.892-2 2-2h18l11 11h1L28 4z"/><path style="opacity:.2" d="M28 5v10a2 2 0 0 0 2 2h10z"/><path style="fill:#fafafa" d="M28 4v10a2 2 0 0 0 2 2h10z"/><path style="fill:#2470b2" d="M20.021 20.993h-.019c.038 4.187 0 7.375 0 11.562-1.844-1.173-4.531-.415-5.517 1.53-1.147 1.975-.166 4.766 1.96 5.593 2.078.95 4.762-.298 5.377-2.496.308-1.2.136-2.454.185-3.681l.015-7.509h9c-.006 2.521-.013 4.042-.02 6.563-1.843-1.173-4.531-.415-5.517 1.53-1.147 1.975-.166 4.766 1.96 5.593 2.25 1.018 5.423-.513 5.593-3.083-.076-2.33-.01-4.668-.026-7.001.003-2.867.01-5.735.01-8.602h-13z"/></svg>
